images/services/listenings-icon.svg

<?xml version="1.0" encoding="UTF-8"?>
<svg width="50" height="51" fill="none" version="1.1" viewBox="0 0 50 51" xmlns="http://www.w3.org/2000/svg">
 <g fill="#FF725E">
  <path d="m11.719 28.906h-3.125c-1.292 0-2.3438 1.0518-2.3438 2.3438v17.188c0 1.292 1.0518 2.3437 2.3438 2.3437h3.125c1.2919 0 2.3437-1.0517 2.3437-2.3437v-17.188c0-1.292-1.0518-2.3438-2.3437-2.3438z"/>
  <path d="m47.656 31.771h-0.7812v-4.0379c1.3375-0.2903 2.3438-1.5005 2.3438-2.9457 0-14.177-11.168-24.787-24.219-24.787-13.384 0-24.219 11.013-24.219 24.622 0 1.4773 0.99717 2.723 2.3438 3.0766v4.0718h-0.78125c-1.2944 0-2.3438 1.0668-2.3438 2.3828v11.12c0 1.316 1.0493 2.3828 2.3438 2.3828h2.0508c0.16182 0 0.29297-0.1333 0.29297-0.2978v-19.659c1.3466-0.3536 2.3438-1.5993 2.3438-3.0766 0-4.7904 1.8172-9.4053 5.2724-12.914 9.5127-9.6684 25.579-5.6464 29.75 7.2696 0.5938 1.8268 0.9151 3.7807 0.9151 5.8091 0 1.4452 1.0062 2.6554 2.3437 2.9457v19.626c0 0.1645 0.1312 0.2978 0.293 0.2978h2.0507c1.2945 0 2.3438-1.0668 2.3438-2.3828v-11.12c0-1.316-1.0493-2.3828-2.3438-2.3828z"/>
  <path d="m41.406 28.906h-3.125c-1.2919 0-2.3437 1.0518-2.3437 2.3438v17.188c0 1.292 1.0518 2.3437 2.3437 2.3437h3.125c1.292 0 2.3438-1.0517 2.3438-2.3437v-17.188c0-1.292-1.0518-2.3438-2.3438-2.3438z"/>
  <path d="m17.188 37.5c-0.4314 0-0.7813 0.3498-0.7813 0.7812v3.125c0 0.4315 0.3499 0.7813 0.7813 0.7813s0.7813-0.3498 0.7813-0.7813v-3.125c0-0.4314-0.3499-0.7812-0.7813-0.7812z"/>
  <path d="m21.094 35.938c-0.4315 0-0.7813 0.3498-0.7813 0.7813v6.25c0 0.4314 0.3498 0.7812 0.7813 0.7812 0.4314 0 0.7812-0.3498 0.7812-0.7812v-6.25c0-0.4315-0.3498-0.7813-0.7812-0.7813z"/>
  <path d="m32.812 37.5c-0.4314 0-0.7813 0.3498-0.7813 0.7812v3.125c0 0.4315 0.3499 0.7813 0.7813 0.7813s0.7813-0.3498 0.7813-0.7813v-3.125c0-0.4314-0.3499-0.7812-0.7813-0.7812z"/>
  <path d="m28.906 35.938c-0.4314 0-0.7812 0.3498-0.7812 0.7813v6.25c0 0.4314 0.3498 0.7812 0.7812 0.7812 0.4315 0 0.7813-0.3498 0.7813-0.7812v-6.25c0-0.4315-0.3498-0.7813-0.7813-0.7813z"/>
  <path d="m25 34.375c-0.4314 0-0.7812 0.3498-0.7812 0.7812v9.375c0 0.4315 0.3498 0.7813 0.7812 0.7813s0.7812-0.3498 0.7812-0.7813v-9.375c0-0.4314-0.3498-0.7812-0.7812-0.7812z"/>
  <path d="m32.031 14.879c0-0.5428-0.4881-0.9177-0.9707-0.7917-0.0099 0.0017-9.5084 2.4646-9.5673 2.5261-0.1348 0.0649-0.2972 0.2509-0.3565 0.4453-0.0647 0.1931-0.0429-0.4709-0.0429 9.6705-2.0557-1.2433-4.6876 0.2983-4.6876 2.8227 0 1.7976 1.4014 3.2609 3.125 3.2609 1.7264 0 3.125-1.4668 3.125-3.2609v-7.5153l7.8126-2.038v4.285c-2.0557-1.2433-4.6876 0.2983-4.6876 2.8227 0 1.7975 1.4014 3.2608 3.125 3.2608 1.7264 0 3.125-1.4667 3.125-3.2608v-12.227z"/>
 </g>
</svg>

<svg width="50" height="51" viewBox="0 0 50 51" fill="none" xmlns="http://www.w3.org/2000/svg">
<path d="M11.7188 28.9062H8.59375C7.30176 28.9062 6.25 29.958 6.25 31.25V48.4375C6.25 49.7295 7.30176 50.7812 8.59375 50.7812H11.7188C13.0107 50.7812 14.0625 49.7295 14.0625 48.4375V31.25C14.0625 29.958 13.0107 28.9062 11.7188 28.9062Z" fill="#407BFF"/>
<path d="M47.6562 31.7708H46.875V27.7329C48.2125 27.4426 49.2188 26.2324 49.2188 24.7872C49.2188 10.6105 38.0505 0 25 0C11.6158 0 0.78125 11.0131 0.78125 24.6224C0.78125 26.0997 1.77842 27.3454 3.125 27.699V31.7708H2.34375C1.04932 31.7708 0 32.8376 0 34.1536V45.2734C0 46.5894 1.04932 47.6562 2.34375 47.6562H4.39453C4.55635 47.6562 4.6875 47.5229 4.6875 47.3584V27.699C6.03408 27.3454 7.03125 26.0997 7.03125 24.6224C7.03125 19.832 8.84844 15.2171 12.3037 11.7085C21.8164 2.04008 37.8831 6.06207 42.0537 18.9781C42.6475 20.8049 42.9688 22.7588 42.9688 24.7872C42.9688 26.2324 43.975 27.4426 45.3125 27.7329V47.3584C45.3125 47.5229 45.4437 47.6562 45.6055 47.6562H47.6562C48.9507 47.6562 50 46.5894 50 45.2734V34.1536C50 32.8376 48.9507 31.7708 47.6562 31.7708Z" fill="#407BFF"/>
<path d="M41.4062 28.9062H38.2812C36.9893 28.9062 35.9375 29.958 35.9375 31.25V48.4375C35.9375 49.7295 36.9893 50.7812 38.2812 50.7812H41.4062C42.6982 50.7812 43.75 49.7295 43.75 48.4375V31.25C43.75 29.958 42.6982 28.9062 41.4062 28.9062Z" fill="#407BFF"/>
<path d="M17.1875 37.5C16.7561 37.5 16.4062 37.8498 16.4062 38.2812V41.4062C16.4062 41.8377 16.7561 42.1875 17.1875 42.1875C17.6189 42.1875 17.9688 41.8377 17.9688 41.4062V38.2812C17.9688 37.8498 17.6189 37.5 17.1875 37.5Z" fill="#407BFF"/>
<path d="M21.0938 35.9375C20.6623 35.9375 20.3125 36.2873 20.3125 36.7188V42.9688C20.3125 43.4002 20.6623 43.75 21.0938 43.75C21.5252 43.75 21.875 43.4002 21.875 42.9688V36.7188C21.875 36.2873 21.5252 35.9375 21.0938 35.9375Z" fill="#407BFF"/>
<path d="M32.8125 37.5C32.3811 37.5 32.0312 37.8498 32.0312 38.2812V41.4062C32.0312 41.8377 32.3811 42.1875 32.8125 42.1875C33.2439 42.1875 33.5938 41.8377 33.5938 41.4062V38.2812C33.5938 37.8498 33.2439 37.5 32.8125 37.5Z" fill="#407BFF"/>
<path d="M28.9062 35.9375C28.4748 35.9375 28.125 36.2873 28.125 36.7188V42.9688C28.125 43.4002 28.4748 43.75 28.9062 43.75C29.3377 43.75 29.6875 43.4002 29.6875 42.9688V36.7188C29.6875 36.2873 29.3377 35.9375 28.9062 35.9375Z" fill="#407BFF"/>
<path d="M25 34.375C24.5686 34.375 24.2188 34.7248 24.2188 35.1562V44.5312C24.2188 44.9627 24.5686 45.3125 25 45.3125C25.4314 45.3125 25.7812 44.9627 25.7812 44.5312V35.1562C25.7812 34.7248 25.4314 34.375 25 34.375Z" fill="#407BFF"/>
<path d="M32.0312 14.8787C32.0312 14.3359 31.5431 13.961 31.0605 14.087C31.0506 14.0887 21.5521 16.5516 21.4932 16.6131C21.3584 16.678 21.196 16.864 21.1367 17.0584C21.072 17.2515 21.0938 16.5875 21.0938 26.7289C19.0381 25.4856 16.4062 27.0272 16.4062 29.5516C16.4062 31.3492 17.8076 32.8125 19.5312 32.8125C21.2576 32.8125 22.6562 31.3457 22.6562 29.5516V22.0363L30.4688 19.9983V24.2833C28.4131 23.04 25.7812 24.5816 25.7812 27.106C25.7812 28.9035 27.1826 30.3668 28.9062 30.3668C30.6326 30.3668 32.0312 28.9001 32.0312 27.106V14.8787Z" fill="#407BFF"/>
</svg>
